static/img/logo.svg

<svg xmlns="http://www.w3.org/2000/svg" viewBox="0 0 300 90"><path fill="#E99C56" d="M34.2 17.5h9v9.1h-9v-9.1zm-5.3-.1h-9V31c-1.2-.3-2.6-.5-4-.5C6.6 30.5.5 36.3.5 45.4c0 9.4 5.7 14.2 16.7 14.3 4 0 7.8-.4 11.7-1.1V17.4zm-9 35c-1 .2-2 .2-3.1.2-4.6 0-7.2-2.6-7.2-7.4s2.6-7.6 7.2-7.6c1 0 2 .1 3 .5l.1 14.3z"/><path fill="#E99C56" d="M34.2 48.6c0 7.7-.4 10.6-1.7 13.2s-3.2 4.1-7.2 5.9l8.3 4c4-1.9 5.8-3.8 7.4-6.6 1.4-2.8 2.1-6.3 2.1-13.5V31.1h-9l.1 17.5zm26.2-18.1c-4.1 0-8.2.8-11.9 2.7V40c3.3-1.7 6.9-2.6 10.5-2.7 2.3 0 3.1.6 3.1 2.3v1.9c-11 .9-15.6 3.8-15.6 10 0 5.7 3.4 8.4 10.9 8.4 4.2 0 8.6-.4 12.8-.9V40.8c0-3.7-.2-5.4-.9-6.8-1.3-2.4-4.2-3.5-8.9-3.5zm2.2 22.7c-1.4.3-2.9.4-4.3.4-2.5 0-3.6-.8-3.6-2.5 0-2.4 1.9-3.3 7.9-3.9v6zm87.1 7c9 0 14.8-5.7 14.8-15.2 0-9-5.5-14.6-14.4-14.6-9.1 0-14.8 5.7-14.8 15.2 0 8.9 5.5 14.6 14.4 14.6zm.3-22.7c3.5 0 5.4 2.9 5.4 7.7s-2 7.7-5.5 7.7-5.5-2.8-5.5-7.7 2.1-7.7 5.6-7.7zm-13.8-5.7c-3.9-.8-7.8-1.2-11.7-1.2-13.1 0-20.6 5.7-20.6 15.8 0 8.1 5 13.3 12.8 13.3 2 .1 4-.4 5.7-1.2v.2c0 5.7-2.5 8-8.4 8-3.4 0-6.7-.8-9.6-2.4v8.2c3.1 1.1 6.3 1.7 9.6 1.7 4.7 0 8.5-1 11.3-3.1.5-.3.9-.7 1.3-1 .8-.7 1.3-1.4 1.9-2.4 1.9-3 2.6-6.6 2.6-14.1v-2.5c-.1-1.2-.1-2.5-.1-3.7l-.1-4.8-.1-3.8v-.9c1.8.2-.4-.2 2 .2l3.4-6.3zm-13.5 19.3v.7c-1 .4-2.3.6-3.4.6-4 0-6.1-2.5-6.1-7 0-3.1 1.1-5.3 3.3-6.6 1.5-.8 3.4-1.3 5.2-1.2h.9v.7l.1 2.9.1 4.1c0 1.2.1 2.5.1 3.4l-.2 2.4zM88.8 30.5c-4.7.1-9.5.8-14 2v26.9h9V38.2c1.3-.4 2.7-.7 4.1-.7 3.2 0 4.3 1.2 4.3 4.7v17.1h9V41.9c0-4.4-.6-6.6-2.5-8.4-1.8-1.8-5.3-3-9.9-3zm135 15c0-9-5.5-14.6-14.4-14.6-9.1 0-14.8 5.7-14.8 15.2 0 9 5.5 14.6 14.5 14.6 8.9 0 14.7-5.9 14.7-15.2zm-20.2.2c0-4.9 2-7.7 5.6-7.7s5.4 2.9 5.4 7.7-2 7.7-5.5 7.7-5.5-2.7-5.5-7.7zm40.3-2.9v17.1h9V42.4c0-4.4-.6-6.6-2.5-8.4-1.8-1.8-5.3-3.1-9.9-3.1-4.7.1-9.5.8-14 2V60h9V38.8c1.3-.4 2.7-.7 4.1-.6 3.1-.1 4.3 1.2 4.3 4.6zM281 59.1c1.2-1.3 1.7-2.8 1.7-5.8V41.1h-6.2V53c0 2.5-.8 3.3-3 3.3-.9 0-1.9-.2-2.9-.5V41.1h-6.1v18.7c3.2.8 6.4 1.3 9.8 1.3 3 .2 5.4-.5 6.7-2zm-109-2.6c2.9 2.7 8.2 3.7 11.8 3.6 2.8 0 5.6-.7 8.1-2v-7.2c-1.9.9-4.1 1.5-6.1 1.5-3.5 0-9-1.3-9-7.5s5.5-7.5 9-7.5c2.1 0 4.1.7 5.9 1.7v-7.3c-2.5-1.1-5.1-1.7-7.8-1.7-3.6 0-8.5 1-11.4 3.9-3.1 2.8-4.9 6.8-4.9 10.9-.5 4.3 1.2 8.6 4.4 11.6zm120.3-8c-1.4-.7-1.3-1.4-1.3-1.4s0-1.2 2.5-1.2c1.8 0 3.6.5 5.2 1.2v-4.7c-1.9-.9-4.1-1.3-6.3-1.1-7.3.3-7.2 5.7-7.2 5.7-.2 1.4.4 2.9 1.3 4.1 1.5 1.2 3.3 2.3 5.1 2.9 1.3.5 1.8 1.1 1.8 1.4 0 .3.2 1.3-2.5 1.3-2-.1-4-.7-5.7-1.5v4.9c2.7 1 5.7 1.4 8.5 1 2.7-.5 5.4-1.3 5.7-5.7.2-4.3-4.1-5.6-7.1-6.9zm-37.2 4.2h7.2v7.2h-7.2v-7.2zM52.1 20.7c-.1-.1-.2-.3-.2-.5v-2.1c0-.6.2-1 .7-1.4l2.6-2.6c1.8-1.4 3.1-2.4 4.1-3.2.9-.8 1.6-1.4 2.1-2.1.5-.6.7-1.2.7-1.7 0-1.4-.7-2.1-2.1-2.1-.7 0-1.3.2-1.7.7-.4.4-.7 1-.8 1.7-.1.4-.4.7-1 .7h-3.7c-.2 0-.3-.1-.4-.2-.1-.1-.2-.3-.2-.4 0-1.2.4-2.4 1-3.4s1.6-1.8 2.7-2.4c1.2-.6 2.5-.9 4-.9 1.6 0 2.9.3 4.1.8s2 1.2 2.6 2.1.9 2 .9 3.2c0 1.4-.4 2.6-1.3 3.7-.8 1.1-2.1 2.3-3.8 3.6l-2.3 2.3h7.2c.2 0 .4.1.5.2s.2.3.2.5v3c0 .2-.1.4-.2.5s-.3.2-.5.2H52.6c-.2.1-.4 0-.5-.2zM72.9 19.2c-1.4-1.4-2.1-3.1-2.2-5.4 0-1-.1-1.9-.1-2.7s0-1.8.1-2.8c.1-1.4.4-2.7 1.1-3.8.6-1.1 1.5-2 2.7-2.6s2.7-1 4.4-1 3.2.3 4.4 1c1.2.6 2.1 1.5 2.8 2.6s1 2.4 1.1 3.8c0 .5.1 1.5.1 2.8s0 2.2-.1 2.7c-.1 2.2-.9 4-2.2 5.4-1.4 1.4-3.3 2-6 2.1-2.7-.1-4.7-.8-6.1-2.1zm8-3.1c.4-.6.7-1.4.7-2.4 0-.5.1-1.4.1-2.7 0-1.2 0-2.1-.1-2.6 0-1-.3-1.8-.7-2.4-.4-.6-1.1-.9-2-.9-1.7 0-2.6 1.1-2.7 3.3V13.7c.1 2.2 1 3.3 2.7 3.3.9 0 1.5-.3 2-.9zM90 20.7c-.1-.1-.2-.3-.2-.5v-2.1c0-.6.2-1 .7-1.4l2.6-2.6c1.8-1.4 3.1-2.4 4.1-3.2.9-.8 1.6-1.4 2.1-2.1.5-.6.7-1.2.7-1.7 0-1.4-.7-2.1-2.1-2.1-.7 0-1.3.2-1.7.7-.4.4-.7 1-.8 1.7-.1.4-.4.7-1 .7h-3.7c-.2 0-.3-.1-.4-.2-.1-.1-.2-.3-.2-.4 0-1.2.4-2.4 1-3.4s1.6-1.8 2.7-2.4c1.2-.6 2.5-.9 4-.9 1.6 0 2.9.3 4.1.8s2 1.2 2.6 2.1.9 2 .9 3.2c0 1.4-.4 2.6-1.3 3.7s-2.1 2.3-3.8 3.6L98 16.5h7.2c.2 0 .4.1.5.2s.2.3.2.5v3c0 .2-.1.4-.2.5s-.3.2-.5.2H90.4c-.1.1-.3 0-.4-.2zM110.8 19.2c-1.4-1.4-2.1-3.1-2.2-5.4 0-1-.1-1.9-.1-2.7s0-1.8.1-2.8c.1-1.4.4-2.7 1.1-3.8.6-1.1 1.5-2 2.7-2.6s2.7-1 4.4-1 3.2.3 4.4 1c1.2.6 2.1 1.5 2.8 2.6s1 2.4 1.1 3.8c0 .5.1 1.5.1 2.8s0 2.2-.1 2.7c-.1 2.2-.9 4-2.2 5.4-1.4 1.4-3.3 2-6 2.1-2.7-.1-4.7-.8-6.1-2.1zm7.9-3.1c.4-.6.7-1.4.7-2.4 0-.5.1-1.4.1-2.7 0-1.2 0-2.1-.1-2.6 0-1-.3-1.8-.7-2.4-.4-.6-1.1-.9-2-.9-1.7 0-2.6 1.1-2.7 3.3V13.7c.1 2.2 1 3.3 2.7 3.3 1 0 1.6-.3 2-.9z"/><g><path fill="#E99C56" d="M139.529 88.289c-1.255-.516-2.206-1.199-2.851-2.048-.646-.849-.988-1.772-1.025-2.768 0-.166.059-.305.18-.415a.61.61 0 0 1 .429-.166h3.682c.222 0 .401.037.54.111.138.074.29.203.457.388.24.442.613.807 1.121 1.093.507.287 1.186.429 2.035.429.997 0 1.762-.152 2.298-.456.534-.305.802-.725.802-1.26 0-.388-.138-.707-.415-.955-.278-.25-.72-.47-1.329-.664-.609-.194-1.486-.411-2.63-.651-2.234-.443-3.904-1.117-5.011-2.021-1.107-.904-1.661-2.196-1.661-3.876 0-1.144.318-2.164.955-3.059s1.541-1.592 2.713-2.091c1.172-.497 2.532-.747 4.083-.747 1.624 0 3.032.282 4.222.844 1.19.563 2.103 1.264 2.74 2.104.636.84.973 1.665 1.01 2.477a.61.61 0 0 1-.166.429.54.54 0 0 1-.415.18h-3.876c-.406 0-.72-.166-.941-.498-.111-.388-.397-.715-.859-.983-.461-.267-1.034-.401-1.716-.401-.775 0-1.375.139-1.8.415-.424.277-.637.683-.637 1.218 0 .535.278.954.831 1.259.553.305 1.587.614 3.101.927 1.734.315 3.114.707 4.138 1.177 1.025.47 1.781 1.08 2.27 1.828.489.747.734 1.693.734 2.837 0 1.255-.36 2.344-1.08 3.267-.719.924-1.716 1.629-2.989 2.118-1.274.489-2.732.734-4.374.734-1.789-.001-3.312-.259-4.566-.776zM153.412 88.608a.555.555 0 0 1-.179-.402c0-.111.009-.194.027-.249l6.451-17.746c.185-.535.554-.803 1.108-.803h4.318c.554 0 .923.268 1.108.803l6.451 17.746a.85.85 0 0 1 .028.249c0 .148-.06.282-.18.402s-.254.179-.401.179h-3.599c-.443 0-.757-.203-.942-.609l-.996-2.685h-7.254l-.997 2.685c-.185.406-.498.609-.942.609h-3.598a.55.55 0 0 1-.403-.179zm7.101-7.267h4.928l-2.464-7.06-2.464 7.06zM175.033 88.581a.666.666 0 0 1-.207-.485V70.129c0-.203.064-.374.194-.512a.648.648 0 0 1 .498-.208h3.128c.424 0 .738.176.942.526l6.534 10.326V70.129c0-.203.064-.374.194-.512a.648.648 0 0 1 .498-.208h3.515c.203 0 .369.069.498.208a.722.722 0 0 1 .194.512v17.94a.724.724 0 0 1-.194.512.653.653 0 0 1-.498.207H187.2c-.425 0-.739-.175-.942-.525l-6.506-9.911v9.744a.65.65 0 0 1-.207.498.72.72 0 0 1-.513.194h-3.515a.668.668 0 0 1-.484-.207zM200.806 88.581a.666.666 0 0 1-.207-.485V70.129c0-.203.064-.374.194-.512a.648.648 0 0 1 .498-.208h7.281c2.731 0 4.854.651 6.368 1.952 1.513 1.301 2.307 3.169 2.381 5.606.018.535.028 1.245.028 2.131s-.01 1.588-.028 2.104c-.185 5.057-3.055 7.585-8.61 7.585h-7.419a.666.666 0 0 1-.486-.206zm7.766-3.946c1.163 0 2.021-.277 2.575-.83.554-.554.849-1.44.886-2.658.037-.535.056-1.227.056-2.076s-.019-1.532-.056-2.049c-.037-1.181-.355-2.053-.955-2.616-.599-.562-1.481-.844-2.643-.844h-2.631v11.074h2.768zM220.711 88.581a.666.666 0 0 1-.207-.485V70.101c0-.203.069-.369.207-.498a.69.69 0 0 1 .485-.194h3.959c.203 0 .369.065.498.194.129.13.194.296.194.498v17.995a.69.69 0 0 1-.194.485.654.654 0 0 1-.498.207h-3.959a.67.67 0 0 1-.485-.207zM229.82 88.581a.666.666 0 0 1-.207-.485V70.129c0-.203.064-.374.194-.512a.648.648 0 0 1 .498-.208h13.067c.203 0 .374.069.512.208a.693.693 0 0 1 .208.512v2.74a.647.647 0 0 1-.208.498.718.718 0 0 1-.512.194h-8.749v3.516h8.139c.203 0 .374.068.512.207a.695.695 0 0 1 .208.512v2.52a.691.691 0 0 1-.208.512.693.693 0 0 1-.512.208h-8.139v3.598h8.97c.203 0 .373.069.512.208a.696.696 0 0 1 .207.512v2.74a.65.65 0 0 1-.207.498.72.72 0 0 1-.512.194h-13.289a.661.661 0 0 1-.484-.205zM249.046 87.113c-1.513-1.301-2.316-3.16-2.408-5.578a77.896 77.896 0 0 1-.028-2.52c0-1.163.009-2.011.028-2.547.073-2.326.881-4.129 2.422-5.412 1.541-1.282 3.631-1.924 6.27-1.924 1.772 0 3.317.287 4.637.858 1.319.572 2.325 1.306 3.017 2.202.692.895 1.056 1.813 1.093 2.754a.583.583 0 0 1-.179.429.583.583 0 0 1-.429.18h-4.291c-.185 0-.328-.032-.429-.096a1.083 1.083 0 0 1-.291-.291 3.274 3.274 0 0 0-1.065-1.329c-.489-.369-1.177-.553-2.063-.553-2.141 0-3.249 1.108-3.322 3.322a71.872 71.872 0 0 0-.028 2.381c0 1.071.009 1.874.028 2.409.073 2.344 1.199 3.515 3.377 3.515 1.071 0 1.919-.267 2.548-.802.627-.535.941-1.347.941-2.437v-.498h-2.464a.694.694 0 0 1-.512-.207.695.695 0 0 1-.208-.512v-2.16c0-.203.069-.373.208-.512a.69.69 0 0 1 .512-.207h7.032c.203 0 .374.068.512.207a.695.695 0 0 1 .208.512v3.212c0 1.569-.365 2.921-1.094 4.055-.729 1.135-1.758 2.003-3.087 2.603-1.329.6-2.879.899-4.651.899-2.676-.002-4.77-.651-6.284-1.953zM269.061 87.155c-1.513-1.273-2.316-3.147-2.408-5.62-.019-.517-.028-1.31-.028-2.381s.009-1.874.028-2.409c.073-2.436.881-4.314 2.422-5.633s3.603-1.98 6.187-1.98c2.565 0 4.619.661 6.16 1.98s2.348 3.197 2.422 5.633c.037 1.071.055 1.874.055 2.409 0 .553-.018 1.347-.055 2.381-.093 2.473-.89 4.346-2.394 5.62-1.505 1.273-3.567 1.91-6.187 1.91-2.621-.001-4.688-.637-6.202-1.91zm8.5-3.115c.571-.581.876-1.472.913-2.672.037-1.07.056-1.836.056-2.297s-.019-1.209-.056-2.243c-.037-1.199-.342-2.09-.913-2.671-.573-.581-1.339-.872-2.298-.872-.979 0-1.754.291-2.326.872s-.877 1.472-.913 2.671a66.118 66.118 0 0 0-.028 2.243c0 .996.009 1.763.028 2.297.036 1.2.341 2.091.913 2.672.572.581 1.347.871 2.326.871.959.001 1.725-.289 2.298-.871z"/></g></svg>

<?xml version="1.0" encoding="UTF-8" standalone="no"?>
<!DOCTYPE svg PUBLIC "-//W3C//DTD SVG 1.1//EN" "http://www.w3.org/Graphics/SVG/1.1/DTD/svg11.dtd">
<svg width="100%" height="100%" viewBox="0 0 300 90" version="1.1" xmlns="http://www.w3.org/2000/svg" xmlns:xlink="http://www.w3.org/1999/xlink" xml:space="preserve" xmlns:serif="http://www.serif.com/" style="fill-rule:evenodd;clip-rule:evenodd;stroke-linejoin:round;stroke-miterlimit:2;">
    <path d="M136.2,31.8C132.3,31 128.4,30.6 124.5,30.6C111.4,30.6 103.9,36.3 103.9,46.4C103.9,54.5 108.9,59.7 116.7,59.7C118.7,59.8 120.7,59.3 122.4,58.5L122.4,58.7C122.4,64.4 119.9,66.7 114,66.7C110.6,66.7 107.3,65.9 104.4,64.3L104.4,72.5C107.5,73.6 110.7,74.2 114,74.2C118.7,74.2 122.5,73.2 125.3,71.1C125.8,70.8 126.2,70.4 126.6,70.1C127.4,69.4 127.9,68.7 128.5,67.7C130.4,64.7 131.1,61.1 131.1,53.6L131.1,51.1C131,49.9 131,48.6 131,47.4L130.9,42.6L130.8,38.8L130.8,37.9C132.6,38.1 130.4,37.7 132.8,38.1L136.2,31.8ZM34.2,48.6C34.2,56.3 33.8,59.2 32.5,61.8C31.2,64.4 29.3,65.9 25.3,67.7L33.6,71.7C37.6,69.8 39.4,67.9 41,65.1C42.4,62.3 43.1,58.8 43.1,51.6L43.1,31.1L34.1,31.1L34.2,48.6ZM292.3,48.5C290.9,47.8 291,47.1 291,47.1C291,47.1 291,45.9 293.5,45.9C295.3,45.9 297.1,46.4 298.7,47.1L298.7,42.4C296.8,41.5 294.6,41.1 292.4,41.3C285.1,41.6 285.2,47 285.2,47C285,48.4 285.6,49.9 286.5,51.1C288,52.3 289.8,53.4 291.6,54C292.9,54.5 293.4,55.1 293.4,55.4C293.4,55.7 293.6,56.7 290.9,56.7C288.9,56.6 286.9,56 285.2,55.2L285.2,60.1C287.9,61.1 290.9,61.5 293.7,61.1C296.4,60.6 299.1,59.8 299.4,55.4C299.6,51.1 295.3,49.8 292.3,48.5ZM281,59.1C282.2,57.8 282.7,56.3 282.7,53.3L282.7,41.1L276.5,41.1L276.5,53C276.5,55.5 275.7,56.3 273.5,56.3C272.6,56.3 271.6,56.1 270.6,55.8L270.6,41.1L264.5,41.1L264.5,59.8C267.7,60.6 270.9,61.1 274.3,61.1C277.3,61.3 279.7,60.6 281,59.1ZM223.8,45.5C223.8,36.5 218.3,30.9 209.4,30.9C200.3,30.9 194.6,36.6 194.6,46.1C194.6,55.1 200.1,60.7 209.1,60.7C218,60.7 223.8,54.8 223.8,45.5ZM149.7,60.2C158.7,60.2 164.5,54.5 164.5,45C164.5,36 159,30.4 150.1,30.4C141,30.4 135.3,36.1 135.3,45.6C135.3,54.5 140.8,60.2 149.7,60.2ZM172,56.5C174.9,59.2 180.2,60.2 183.8,60.1C186.6,60.1 189.4,59.4 191.9,58.1L191.9,50.9C190,51.8 187.8,52.4 185.8,52.4C182.3,52.4 176.8,51.1 176.8,44.9C176.8,38.7 182.3,37.4 185.8,37.4C187.9,37.4 189.9,38.1 191.7,39.1L191.7,31.8C189.2,30.7 186.6,30.1 183.9,30.1C180.3,30.1 175.4,31.1 172.5,34C169.4,36.8 167.6,40.8 167.6,44.9C167.1,49.2 168.8,53.5 172,56.5ZM243.9,42.8L243.9,59.9L252.9,59.9L252.9,42.4C252.9,38 252.3,35.8 250.4,34C248.6,32.2 245.1,30.9 240.5,30.9C235.8,31 231,31.7 226.5,32.9L226.5,60L235.5,60L235.5,38.8C236.8,38.4 238.2,38.1 239.6,38.2C242.7,38.1 243.9,39.4 243.9,42.8ZM255.1,52.7L262.3,52.7L262.3,59.9L255.1,59.9L255.1,52.7ZM60.4,30.5C56.3,30.5 52.2,31.3 48.5,33.2L48.5,40C51.8,38.3 55.4,37.4 59,37.3C61.3,37.3 62.1,37.9 62.1,39.6L62.1,41.5C51.1,42.4 46.5,45.3 46.5,51.5C46.5,57.2 49.9,59.9 57.4,59.9C61.6,59.9 66,59.5 70.2,59L70.2,40.8C70.2,37.1 70,35.4 69.3,34C68,31.6 65.1,30.5 60.4,30.5ZM28.9,17.4L19.9,17.4L19.9,31C18.7,30.7 17.3,30.5 15.9,30.5C6.6,30.5 0.5,36.3 0.5,45.4C0.5,54.8 6.2,59.6 17.2,59.7C21.2,59.7 25,59.3 28.9,58.6L28.9,17.4ZM88.8,30.5C84.1,30.6 79.3,31.3 74.8,32.5L74.8,59.4L83.8,59.4L83.8,38.2C85.1,37.8 86.5,37.5 87.9,37.5C91.1,37.5 92.2,38.7 92.2,42.2L92.2,59.3L101.2,59.3L101.2,41.9C101.2,37.5 100.6,35.3 98.7,33.5C96.9,31.7 93.4,30.5 88.8,30.5ZM62.6,53.2C61.2,53.5 59.7,53.6 58.3,53.6C55.8,53.6 54.7,52.8 54.7,51.1C54.7,48.7 56.6,47.8 62.6,47.2L62.6,53.2ZM203.6,45.7C203.6,40.8 205.6,38 209.2,38C212.8,38 214.6,40.9 214.6,45.7C214.6,50.5 212.6,53.4 209.1,53.4C205.6,53.4 203.6,50.7 203.6,45.7ZM150,37.5C153.5,37.5 155.4,40.4 155.4,45.2C155.4,50 153.4,52.9 149.9,52.9C146.4,52.9 144.4,50.1 144.4,45.2C144.4,40.3 146.5,37.5 150,37.5ZM19.9,52.4C18.9,52.6 17.9,52.6 16.8,52.6C12.2,52.6 9.6,50 9.6,45.2C9.6,40.4 12.2,37.6 16.8,37.6C17.8,37.6 18.8,37.7 19.8,38.1L19.9,52.4ZM122.7,51.1L122.7,51.8C121.7,52.2 120.4,52.4 119.3,52.4C115.3,52.4 113.2,49.9 113.2,45.4C113.2,42.3 114.3,40.1 116.5,38.8C118,38 119.9,37.5 121.7,37.6L122.6,37.6L122.6,38.3L122.7,41.2L122.8,45.3C122.8,46.5 122.9,47.8 122.9,48.7L122.7,51.1ZM34.2,17.5L43.2,17.5L43.2,26.6L34.2,26.6L34.2,17.5Z" style="fill:rgb(233,156,86);fill-rule:nonzero;"/>
    <g>
        <path d="M139.529,88.289C138.274,87.773 137.323,87.09 136.678,86.241C136.032,85.392 135.69,84.469 135.653,83.473C135.653,83.307 135.712,83.168 135.833,83.058C135.949,82.949 136.103,82.889 136.262,82.892L139.944,82.892C140.166,82.892 140.345,82.929 140.484,83.003C140.622,83.077 140.774,83.206 140.941,83.391C141.181,83.833 141.554,84.198 142.062,84.484C142.569,84.771 143.248,84.913 144.097,84.913C145.094,84.913 145.859,84.761 146.395,84.457C146.929,84.152 147.197,83.732 147.197,83.197C147.197,82.809 147.059,82.49 146.782,82.242C146.504,81.992 146.062,81.772 145.453,81.578C144.844,81.384 143.967,81.167 142.823,80.927C140.589,80.484 138.919,79.81 137.812,78.906C136.705,78.002 136.151,76.71 136.151,75.03C136.151,73.886 136.469,72.866 137.106,71.971C137.743,71.076 138.647,70.379 139.819,69.88C140.991,69.383 142.351,69.133 143.902,69.133C145.526,69.133 146.934,69.415 148.124,69.977C149.314,70.54 150.227,71.241 150.864,72.081C151.5,72.921 151.837,73.746 151.874,74.558C151.877,74.717 151.817,74.871 151.708,74.987C151.603,75.105 151.451,75.171 151.293,75.167L147.417,75.167C147.011,75.167 146.697,75.001 146.476,74.669C146.365,74.281 146.079,73.954 145.617,73.686C145.156,73.419 144.583,73.285 143.901,73.285C143.126,73.285 142.526,73.424 142.101,73.7C141.677,73.977 141.464,74.383 141.464,74.918C141.464,75.453 141.742,75.872 142.295,76.177C142.848,76.482 143.882,76.791 145.396,77.104C147.13,77.419 148.51,77.811 149.534,78.281C150.559,78.751 151.315,79.361 151.804,80.109C152.293,80.856 152.538,81.802 152.538,82.946C152.538,84.201 152.178,85.29 151.458,86.213C150.739,87.137 149.742,87.842 148.469,88.331C147.195,88.82 145.737,89.065 144.095,89.065C142.306,89.064 140.783,88.806 139.529,88.289ZM153.412,88.608C153.3,88.504 153.235,88.359 153.233,88.206C153.233,88.095 153.242,88.012 153.26,87.957L159.711,70.211C159.896,69.676 160.265,69.408 160.819,69.408L165.137,69.408C165.691,69.408 166.06,69.676 166.245,70.211L172.696,87.957C172.718,88.038 172.727,88.122 172.724,88.206C172.724,88.354 172.664,88.488 172.544,88.608C172.424,88.728 172.29,88.787 172.143,88.787L168.544,88.787C168.101,88.787 167.787,88.584 167.602,88.178L166.606,85.493L159.352,85.493L158.355,88.178C158.17,88.584 157.857,88.787 157.413,88.787L153.815,88.787C153.662,88.786 153.515,88.721 153.412,88.608ZM160.513,81.341L165.441,81.341L162.977,74.281L160.513,81.341ZM175.033,88.581C174.9,88.455 174.825,88.279 174.826,88.096L174.826,70.129C174.826,69.926 174.89,69.755 175.02,69.617C175.148,69.479 175.33,69.403 175.518,69.409L178.646,69.409C179.07,69.409 179.384,69.585 179.588,69.935L186.122,80.261L186.122,70.129C186.122,69.926 186.186,69.755 186.316,69.617C186.444,69.479 186.626,69.403 186.814,69.409L190.329,69.409C190.532,69.409 190.698,69.478 190.827,69.617C190.956,69.756 191.026,69.94 191.021,70.129L191.021,88.069C191.026,88.258 190.956,88.442 190.827,88.581C190.699,88.718 190.517,88.794 190.329,88.788L187.2,88.788C186.775,88.788 186.461,88.613 186.258,88.263L179.752,78.352L179.752,88.096C179.758,88.284 179.683,88.466 179.545,88.594C179.406,88.724 179.222,88.794 179.032,88.788L175.517,88.788C175.334,88.788 175.159,88.713 175.033,88.581ZM200.806,88.581C200.673,88.455 200.598,88.279 200.599,88.096L200.599,70.129C200.599,69.926 200.663,69.755 200.793,69.617C200.921,69.479 201.103,69.403 201.291,69.409L208.572,69.409C211.303,69.409 213.426,70.06 214.94,71.361C216.453,72.662 217.247,74.53 217.321,76.967C217.339,77.502 217.349,78.212 217.349,79.098C217.349,79.984 217.339,80.686 217.321,81.202C217.136,86.259 214.266,88.787 208.711,88.787L201.292,88.787C201.109,88.788 200.933,88.714 200.806,88.581ZM208.572,84.635C209.735,84.635 210.593,84.358 211.147,83.805C211.701,83.251 211.996,82.365 212.033,81.147C212.07,80.612 212.089,79.92 212.089,79.071C212.089,78.222 212.07,77.539 212.033,77.022C211.996,75.841 211.678,74.969 211.078,74.406C210.479,73.844 209.597,73.562 208.435,73.562L205.804,73.562L205.804,84.636L208.572,84.636L208.572,84.635ZM220.711,88.581C220.578,88.455 220.503,88.279 220.504,88.096L220.504,70.101C220.504,69.898 220.573,69.732 220.711,69.603C220.841,69.477 221.015,69.408 221.196,69.409L225.155,69.409C225.358,69.409 225.524,69.474 225.653,69.603C225.782,69.733 225.847,69.899 225.847,70.101L225.847,88.096C225.848,88.277 225.779,88.451 225.653,88.581C225.525,88.718 225.343,88.794 225.155,88.788L221.196,88.788C221.013,88.788 220.838,88.713 220.711,88.581ZM229.82,88.581C229.687,88.455 229.612,88.279 229.613,88.096L229.613,70.129C229.613,69.926 229.677,69.755 229.807,69.617C229.935,69.479 230.117,69.403 230.305,69.409L243.372,69.409C243.575,69.409 243.746,69.478 243.884,69.617C244.021,69.751 244.097,69.937 244.092,70.129L244.092,72.869C244.099,73.057 244.022,73.239 243.884,73.367C243.746,73.497 243.562,73.566 243.372,73.561L234.623,73.561L234.623,77.077L242.762,77.077C242.965,77.077 243.136,77.145 243.274,77.284C243.411,77.419 243.486,77.604 243.482,77.796L243.482,80.316C243.487,80.508 243.411,80.694 243.274,80.828C243.14,80.965 242.954,81.041 242.762,81.036L234.623,81.036L234.623,84.634L243.593,84.634C243.796,84.634 243.966,84.703 244.105,84.842C244.242,84.977 244.317,85.162 244.312,85.354L244.312,88.094C244.318,88.282 244.243,88.464 244.105,88.592C243.967,88.722 243.782,88.791 243.593,88.786L230.304,88.786C230.121,88.788 229.946,88.713 229.82,88.581ZM249.046,87.113C247.533,85.812 246.73,83.953 246.638,81.535C246.615,80.695 246.606,79.855 246.61,79.015C246.61,77.852 246.619,77.004 246.638,76.468C246.711,74.142 247.519,72.339 249.06,71.056C250.601,69.774 252.691,69.132 255.33,69.132C257.102,69.132 258.647,69.419 259.967,69.99C261.286,70.562 262.292,71.296 262.984,72.192C263.676,73.087 264.04,74.005 264.077,74.946C264.079,75.108 264.015,75.263 263.898,75.375C263.786,75.492 263.631,75.557 263.469,75.555L259.178,75.555C258.993,75.555 258.85,75.523 258.749,75.459C258.634,75.381 258.536,75.283 258.458,75.168C258.226,74.639 257.859,74.18 257.393,73.839C256.904,73.47 256.216,73.286 255.33,73.286C253.189,73.286 252.081,74.394 252.008,76.608C251.986,77.401 251.976,78.195 251.98,78.989C251.98,80.06 251.989,80.863 252.008,81.398C252.081,83.742 253.207,84.913 255.385,84.913C256.456,84.913 257.304,84.646 257.933,84.111C258.56,83.576 258.874,82.764 258.874,81.674L258.874,81.176L256.41,81.176C256.218,81.181 256.033,81.106 255.898,80.969C255.761,80.834 255.686,80.649 255.69,80.457L255.69,78.297C255.69,78.094 255.759,77.924 255.898,77.785C256.032,77.648 256.218,77.573 256.41,77.578L263.442,77.578C263.645,77.578 263.816,77.646 263.954,77.785C264.091,77.92 264.166,78.105 264.162,78.297L264.162,81.509C264.162,83.078 263.797,84.43 263.068,85.564C262.339,86.699 261.31,87.567 259.981,88.167C258.652,88.767 257.102,89.066 255.33,89.066C252.654,89.064 250.56,88.415 249.046,87.113ZM269.061,87.155C267.548,85.882 266.745,84.008 266.653,81.535C266.634,81.018 266.625,80.225 266.625,79.154C266.625,78.083 266.634,77.28 266.653,76.745C266.726,74.309 267.534,72.431 269.075,71.112C270.616,69.793 272.678,69.132 275.262,69.132C277.827,69.132 279.881,69.793 281.422,71.112C282.963,72.431 283.77,74.309 283.844,76.745C283.881,77.816 283.899,78.619 283.899,79.154C283.899,79.707 283.881,80.501 283.844,81.535C283.751,84.008 282.954,85.881 281.45,87.155C279.945,88.428 277.883,89.065 275.263,89.065C272.642,89.064 270.575,88.428 269.061,87.155ZM277.561,84.04C278.132,83.459 278.437,82.568 278.474,81.368C278.511,80.298 278.53,79.532 278.53,79.071C278.53,78.61 278.511,77.862 278.474,76.828C278.437,75.629 278.132,74.738 277.561,74.157C276.988,73.576 276.222,73.285 275.263,73.285C274.284,73.285 273.509,73.576 272.937,74.157C272.365,74.738 272.06,75.629 272.024,76.828C272.002,77.575 271.993,78.323 271.996,79.071C271.996,80.067 272.005,80.834 272.024,81.368C272.06,82.568 272.365,83.459 272.937,84.04C273.509,84.621 274.284,84.911 275.263,84.911C276.222,84.912 276.988,84.622 277.561,84.04Z" style="fill:rgb(233,156,86);fill-rule:nonzero;"/>
    </g>
    <g transform="matrix(1,0,0,1,-98.3221,6.91906)">
        <text x="149.423px" y="14.081px" style="font-family:'Rubik-Bold', 'Rubik';font-weight:700;font-size:28px;fill:rgb(233,156,86);">2023</text>
    </g>
</svg>
